tools/download-figma-icons/icons/action/question-mark.svg

<svg width="24" height="24" viewBox="0 0 24 24" fill="none" xmlns="http://www.w3.org/2000/svg">
<path fill-rule="evenodd" clip-rule="evenodd" d="M12.2544 0C14.2244 0 15.7991 0.550761 16.9795 1.65228C18.1589 2.7546 18.7495 4.21367 18.75 6.03054C18.75 7.0226 18.5596 7.94443 18.1802 8.79522C17.8003 9.64654 17.2261 10.443 16.4561 11.1846L15.1637 12.4374C14.3632 13.2103 13.8322 13.8944 13.5708 14.4894C13.3093 15.0852 13.1781 15.8154 13.1781 16.6829C13.1781 16.8162 13.1809 17.0312 13.1846 17.1995C13.1895 17.248 13.1927 17.2973 13.1927 17.3471C13.1927 17.3584 13.1917 17.3693 13.1908 17.3803C13.1904 17.3858 13.1899 17.3913 13.1895 17.3969C13.1898 17.3999 13.1899 17.4035 13.19 17.4069C13.1902 17.4106 13.1903 17.4141 13.1906 17.4168C13.1906 17.4174 13.1901 17.4179 13.1895 17.4183C13.1891 17.4187 13.1887 17.419 13.1885 17.4195C13.1513 18.1603 12.5513 18.75 11.8138 18.75C11.0526 18.75 10.4355 18.1218 10.4355 17.3471C10.4355 17.3435 10.4357 17.34 10.436 17.3365C10.4363 17.333 10.4365 17.3295 10.4365 17.3259C10.4313 17.2751 10.4276 17.2183 10.4234 17.156L10.4227 17.1452C10.4126 16.9933 10.4076 16.8812 10.4076 16.808C10.4076 15.6591 10.5974 14.6386 10.9769 13.7454C11.3565 12.8525 11.9823 11.9678 12.8547 11.0902L14.0549 9.86838C14.6806 9.24182 15.1272 8.63089 15.3941 8.0356C15.6611 7.44031 15.7939 6.77214 15.7939 6.03081C15.7939 4.9762 15.4582 4.12806 14.7858 3.48533C14.114 2.84313 13.2289 2.52216 12.131 2.52216C10.7766 2.52216 9.75295 2.94252 9.06079 3.78324C8.48008 4.48825 8.12098 5.49542 7.98375 6.80553C7.98114 6.83045 7.97021 6.96933 7.96734 7.00723C7.90979 7.71702 7.32336 8.27838 6.61193 8.27838C5.85831 8.27838 5.25 7.65553 5.25 6.89247C5.25 6.84741 5.25234 6.80315 5.25651 6.75941C5.25312 6.72204 5.25052 6.6852 5.25469 6.64757C5.43541 5.05677 5.94789 3.00374 7.05253 1.87996C8.28374 0.626299 10.0175 0 12.2544 0ZM12 24C13.0355 24 13.875 23.1605 13.875 22.125C13.875 21.0895 13.0355 20.25 12 20.25C10.9645 20.25 10.125 21.0895 10.125 22.125C10.125 23.1605 10.9645 24 12 24Z" fill="black"/>
</svg>

<svg xmlns="http://www.w3.org/2000/svg" width="24" height="24" fill="none" viewBox="0 0 24 24"><path fill="currentColor" fill-rule="evenodd" d="M12.254 0q2.955 0 4.726 1.652 1.77 1.654 1.77 4.379 0 1.488-.57 2.764-.57 1.277-1.724 2.39l-1.292 1.252q-1.2 1.16-1.593 2.052t-.393 2.194c0 .133.003.348.007.517q.008.072.008.147l-.002.033-.002.017.001.01v.011l-.002.002a1.39 1.39 0 0 1-1.374 1.33 1.39 1.39 0 0 1-1.377-1.424q-.009-.076-.014-.17v-.01a6 6 0 0 1-.015-.338q0-1.723.569-3.063.57-1.339 1.878-2.655l1.2-1.222q.938-.94 1.34-1.832.399-.894.399-2.005 0-1.582-1.008-2.546t-2.655-.963q-2.031 0-3.07 1.261-.87 1.057-1.077 3.023l-.017.201a1.374 1.374 0 0 1-1.355 1.271A1.375 1.375 0 0 1 5.257 6.76a.6.6 0 0 1-.002-.111c.18-1.591.693-3.644 1.798-4.768Q8.899 0 12.254 0M12 24a1.875 1.875 0 1 0 0-3.75A1.875 1.875 0 0 0 12 24" clip-rule="evenodd"/></svg>
